X: 1
T: Paddy On The Binge
M: 4/4
L: 1/8
R: barndance
K: Dmaj
|:AFDE FDAF|(3EFE DE FDBD|FADE FAAF|1(3EFE D2 D4:|2(3EF ED2 D2 (3ABc||
|:d2dB ABdB|(3ABA FD EF(3ABc|d2 dB (3ABc de|f2e2 e2de|(3fge df (3efd Bc|
dedB AFDz|FADE FDAF|1(3EFE D2 D2 (3ABc:|2(3EFE D2 D4||
